X: 31356
T: Paddy O'Carroll
R: jig
M: 6/8
K: Gmajor
|:d||BGG BGG|BcB BAG|dBB gdB|ABA A2d|
BGG BGG|BcB BAG|dBB gdB|GAG G2:|
|:g||bgg agf|ege dBG|GBd gfg|efg a3|
bgg agf|age dcB|def gdB|GAG G2:|
|:d||BGG dGG|BGG BAG|ece dBG|FAA A2d|
BGG dGG|BcB BAG|def gdB|GAG G2:|
|:d||gbg faf|ege dcB|ceg dBG|FAA A2f|
bgg agf|ege dcB|def gdB|GAG G2:|

